X: 51
T: Bess Kings Jigg
M:6/4
L:1/4
S: 8: MCJLSH3 http://www.cpartington.plus.com/links/Walsh.abc
Z: Pete Stewart 2004
B: Walsh "Third Book of the most Celebrated jiggs, Lancashire hornpipes, ..."
K:Gmin
e/f/ | g3f>ed | egc=B>cd | e.dcB>AG | _AF3/2E/4F/4G2 ||
G/_A/ | B>cBe2e/4f/4g | fe/d/c/B/B2b | g>feded/c/ | g3g2f | edc=Bcd | efg_a2g | fe/d/e Gc=B | (c3c2) ||

%%sep 1 1 500
%%sep 1 1 500
